images/dumbell.svg

<svg width="64" height="64" viewBox="0 0 64 64" fill="none" xmlns="http://www.w3.org/2000/svg">
<path d="M7.2 42.4H12V43.2C12 44.9645 13.4355 46.4 15.2 46.4H20C21.7645 46.4 23.2 44.9645 23.2 43.2V36.8H40.8V43.2C40.8 44.9645 42.2355 46.4 44 46.4H48.8C50.5645 46.4 52 44.9645 52 43.2V42.4H56.8C58.5645 42.4 60 40.9645 60 39.2V24.8C60 23.0356 58.5645 21.6 56.8 21.6H52V20.8C52 19.0356 50.5645 17.6 48.8 17.6H44C42.2355 17.6 40.8 19.0356 40.8 20.8V27.2H23.2V20.8C23.2 19.0356 21.7645 17.6 20 17.6H15.2C13.4355 17.6 12 19.0356 12 20.8V21.6H7.2C5.43555 21.6 4 23.0356 4 24.8V39.2C4 40.9645 5.43555 42.4 7.2 42.4ZM56.8 24.8V39.2H52V24.8H56.8ZM44 20.8H48.8V24.8V39.2V43.2H44V20.8ZM40.6 30.4V33.6H23.2V30.4H40.6ZM15.2 20.8H20L20.0005 27.2H20V36.8H20.0014L20.002 43.2H15.2V39.2V24.8V20.8ZM7.2 24.8H12V39.2H7.2V24.8Z" fill="#F7931E"/>
</svg>

<svg width="64" height="64" fill="none" xmlns="http://www.w3.org/2000/svg"><path d="M7.2 42.4H12v.8c0 1.764 1.435 3.2 3.2 3.2H20c1.765 0 3.2-1.435 3.2-3.2v-6.4h17.6v6.4c0 1.764 1.436 3.2 3.2 3.2h4.8c1.765 0 3.2-1.435 3.2-3.2v-.8h4.8c1.765 0 3.2-1.435 3.2-3.2V24.8c0-1.764-1.435-3.2-3.2-3.2H52v-.8c0-1.764-1.435-3.2-3.2-3.2H44a3.204 3.204 0 0 0-3.2 3.2v6.4H23.2v-6.4c0-1.764-1.435-3.2-3.2-3.2h-4.8a3.204 3.204 0 0 0-3.2 3.2v.8H7.2A3.204 3.204 0 0 0 4 24.8v14.4c0 1.764 1.436 3.2 3.2 3.2Zm49.6-17.6v14.4H52V24.8h4.8Zm-12.8-4h4.8v22.4H44V20.8Zm-3.4 9.6v3.2H23.2v-3.2h17.4Zm-25.4-9.6H20v16h.001l.001 6.4H15.2V20.8Zm-8 4H12v14.4H7.2V24.8Z" fill="#F7931E"/></svg>
